images/5459741.svg

<?xml version="1.0" encoding="UTF-8"?>
<svg xmlns="http://www.w3.org/2000/svg" xmlns:xlink="http://www.w3.org/1999/xlink" width="300pt" height="300pt" viewBox="0 0 300 300" version="1.1">
<defs>
<g>
<symbol overflow="visible" id="glyph0-0">
<path style="stroke:none;" d="M 0.546875 1.9375 L 0.546875 -7.75 L 6.046875 -7.75 L 6.046875 1.9375 Z M 1.171875 1.328125 L 5.4375 1.328125 L 5.4375 -7.140625 L 1.171875 -7.140625 Z M 1.171875 1.328125 "/>
</symbol>
<symbol overflow="visible" id="glyph0-1">
<path style="stroke:none;" d="M 1.078125 -8.015625 L 2.546875 -8.015625 L 6.09375 -1.3125 L 6.09375 -8.015625 L 7.15625 -8.015625 L 7.15625 0 L 5.6875 0 L 2.125 -6.703125 L 2.125 0 L 1.078125 0 Z M 1.078125 -8.015625 "/>
</symbol>
<symbol overflow="visible" id="glyph0-2">
<path style="stroke:none;" d="M 4.328125 -7.28125 C 3.546875 -7.28125 2.921875 -6.984375 2.453125 -6.390625 C 1.992188 -5.804688 1.765625 -5.007812 1.765625 -4 C 1.765625 -2.988281 1.992188 -2.1875 2.453125 -1.59375 C 2.921875 -1.007812 3.546875 -0.71875 4.328125 -0.71875 C 5.117188 -0.71875 5.742188 -1.007812 6.203125 -1.59375 C 6.660156 -2.1875 6.890625 -2.988281 6.890625 -4 C 6.890625 -5.007812 6.660156 -5.804688 6.203125 -6.390625 C 5.742188 -6.984375 5.117188 -7.28125 4.328125 -7.28125 Z M 4.328125 -8.171875 C 5.453125 -8.171875 6.351562 -7.789062 7.03125 -7.03125 C 7.707031 -6.28125 8.046875 -5.269531 8.046875 -4 C 8.046875 -2.738281 7.707031 -1.726562 7.03125 -0.96875 C 6.351562 -0.21875 5.453125 0.15625 4.328125 0.15625 C 3.203125 0.15625 2.300781 -0.21875 1.625 -0.96875 C 0.957031 -1.71875 0.625 -2.726562 0.625 -4 C 0.625 -5.269531 0.957031 -6.28125 1.625 -7.03125 C 2.300781 -7.789062 3.203125 -8.171875 4.328125 -8.171875 Z M 4.328125 -8.171875 "/>
</symbol>
<symbol overflow="visible" id="glyph0-3">
<path style="stroke:none;" d="M 1.078125 -8.015625 L 2.171875 -8.015625 L 2.171875 -4.734375 L 6.109375 -4.734375 L 6.109375 -8.015625 L 7.1875 -8.015625 L 7.1875 0 L 6.109375 0 L 6.109375 -3.8125 L 2.171875 -3.8125 L 2.171875 0 L 1.078125 0 Z M 1.078125 -8.015625 "/>
</symbol>
</g>
</defs>
<g id="surface33537">
<rect x="0" y="0" width="300" height="300" style="fill:rgb(100%,100%,100%);fill-opacity:1;stroke:none;"/>
<path style="fill:none;stroke-width:1;stroke-linecap:butt;stroke-linejoin:miter;stroke:rgb(0%,0%,0%);stroke-opacity:1;stroke-miterlimit:10;" d="M 83.023438 94.667969 L 83.023438 94.667969 M 81.117188 92.351562 L 80.441406 93.144531 M 79.210938 90.039062 L 77.855469 91.621094 M 77.304688 87.722656 L 75.269531 90.097656 M 75.394531 85.40625 L 72.6875 88.578125 M 73.488281 83.089844 L 70.101562 87.054688 M 71.582031 80.773438 L 67.515625 85.53125 M 69.675781 78.457031 L 64.933594 84.007812 M 67.769531 76.144531 L 62.347656 82.484375 M 65.988281 73.980469 L 59.9375 81.0625 "/>
<path style="fill:none;stroke-width:1.2;stroke-linecap:butt;stroke-linejoin:miter;stroke:rgb(0%,0%,0%);stroke-opacity:1;stroke-miterlimit:10;" d="M 83.023438 94.667969 L 108.6875 88.515625 "/>
<path style="fill:none;stroke-width:1.2;stroke-linecap:butt;stroke-linejoin:miter;stroke:rgb(0%,0%,100%);stroke-opacity:1;stroke-miterlimit:10;" d="M 80.945312 120.976562 L 81.984375 107.824219 "/>
<path style="fill:none;stroke-width:1.2;stroke-linecap:butt;stroke-linejoin:miter;stroke:rgb(0%,0%,0%);stroke-opacity:1;stroke-miterlimit:10;" d="M 81.984375 107.824219 L 83.023438 94.667969 "/>
<path style="fill:none;stroke-width:1.2;stroke-linecap:butt;stroke-linejoin:miter;stroke:rgb(0%,0%,0%);stroke-opacity:1;stroke-miterlimit:10;" d="M 108.6875 88.515625 L 122.472656 111.023438 "/>
<path style="fill:none;stroke-width:1.2;stroke-linecap:butt;stroke-linejoin:miter;stroke:rgb(0%,0%,0%);stroke-opacity:1;stroke-miterlimit:10;" d="M 104.773438 94.007812 L 115.796875 112.015625 "/>
<path style="fill:none;stroke-width:1.2;stroke-linecap:butt;stroke-linejoin:miter;stroke:rgb(0%,0%,0%);stroke-opacity:1;stroke-miterlimit:10;" d="M 122.472656 111.023438 L 105.324219 131.085938 "/>
<path style="fill:none;stroke-width:1.2;stroke-linecap:butt;stroke-linejoin:miter;stroke:rgb(0%,0%,0%);stroke-opacity:1;stroke-miterlimit:10;" d="M 105.324219 131.085938 L 93.136719 126.03125 "/>
<path style="fill:none;stroke-width:1.2;stroke-linecap:butt;stroke-linejoin:miter;stroke:rgb(0%,0%,100%);stroke-opacity:1;stroke-miterlimit:10;" d="M 93.136719 126.03125 L 80.945312 120.976562 "/>
<path style=" stroke:none;fill-rule:nonzero;fill:rgb(0%,0%,0%);fill-opacity:1;" d="M 105.324219 131.085938 L 88.632812 152.050781 L 96.816406 156.5 Z M 105.324219 131.085938 "/>
<path style="fill:none;stroke-width:1.2;stroke-linecap:butt;stroke-linejoin:miter;stroke:rgb(0%,0%,0%);stroke-opacity:1;stroke-miterlimit:10;" d="M 105.324219 131.085938 L 127.070312 146.039062 "/>
<path style="fill:none;stroke-width:1.2;stroke-linecap:butt;stroke-linejoin:miter;stroke:rgb(0%,0%,100%);stroke-opacity:1;stroke-miterlimit:10;" d="M 80.945312 120.976562 L 69.691406 127.871094 "/>
<path style="fill:none;stroke-width:1.2;stroke-linecap:butt;stroke-linejoin:miter;stroke:rgb(0%,0%,0%);stroke-opacity:1;stroke-miterlimit:10;" d="M 69.691406 127.871094 L 58.4375 134.761719 "/>
<path style=" stroke:none;fill-rule:nonzero;fill:rgb(100%,100%,100%);fill-opacity:1;" d="M 76.945312 114.476562 L 84.945312 114.476562 L 84.945312 127.476562 L 76.945312 127.476562 Z M 76.945312 114.476562 "/>
<g style="fill:rgb(0%,0%,100%);fill-opacity:1;">
  <use xlink:href="#glyph0-1" x="76.945312" y="124.37793"/>
</g>
<path style="fill:none;stroke-width:1.2;stroke-linecap:butt;stroke-linejoin:miter;stroke:rgb(0%,0%,0%);stroke-opacity:1;stroke-miterlimit:10;" d="M 55.335938 134.839844 L 55.675781 148.03125 "/>
<path style="fill:none;stroke-width:1.2;stroke-linecap:butt;stroke-linejoin:miter;stroke:rgb(100%,0%,0%);stroke-opacity:1;stroke-miterlimit:10;" d="M 55.675781 148.03125 L 56.019531 161.222656 "/>
<path style="fill:none;stroke-width:1.2;stroke-linecap:butt;stroke-linejoin:miter;stroke:rgb(0%,0%,0%);stroke-opacity:1;stroke-miterlimit:10;" d="M 61.542969 134.679688 L 61.882812 147.871094 "/>
<path style="fill:none;stroke-width:1.2;stroke-linecap:butt;stroke-linejoin:miter;stroke:rgb(100%,0%,0%);stroke-opacity:1;stroke-miterlimit:10;" d="M 61.882812 147.871094 L 62.226562 161.0625 "/>
<path style="fill:none;stroke-width:1.2;stroke-linecap:butt;stroke-linejoin:miter;stroke:rgb(0%,0%,0%);stroke-opacity:1;stroke-miterlimit:10;" d="M 58.4375 134.761719 L 35.25 122.160156 "/>
<path style=" stroke:none;fill-rule:nonzero;fill:rgb(100%,100%,100%);fill-opacity:1;" d="M 55.121094 154.644531 L 64.121094 154.644531 L 64.121094 167.644531 L 55.121094 167.644531 Z M 55.121094 154.644531 "/>
<g style="fill:rgb(100%,0%,0%);fill-opacity:1;">
  <use xlink:href="#glyph0-2" x="55.121094" y="164.545898"/>
</g>
<path style="fill:none;stroke-width:1.2;stroke-linecap:butt;stroke-linejoin:miter;stroke:rgb(0%,0%,0%);stroke-opacity:1;stroke-miterlimit:10;" d="M 92.726562 154.273438 L 106.507812 176.78125 "/>
<path style="fill:none;stroke-width:1.2;stroke-linecap:butt;stroke-linejoin:miter;stroke:rgb(0%,0%,0%);stroke-opacity:1;stroke-miterlimit:10;" d="M 106.507812 176.78125 L 132.890625 176.097656 "/>
<path style="fill:none;stroke-width:1.2;stroke-linecap:butt;stroke-linejoin:miter;stroke:rgb(0%,0%,0%);stroke-opacity:1;stroke-miterlimit:10;" d="M 109.304688 182.921875 L 130.410156 182.375 "/>
<path style="fill:none;stroke-width:1.2;stroke-linecap:butt;stroke-linejoin:miter;stroke:rgb(0%,0%,0%);stroke-opacity:1;stroke-miterlimit:10;" d="M 93.90625 199.96875 L 106.507812 176.78125 "/>
<path style="fill:none;stroke-width:1.2;stroke-linecap:butt;stroke-linejoin:miter;stroke:rgb(0%,0%,0%);stroke-opacity:1;stroke-miterlimit:10;" d="M 132.890625 176.097656 L 146.671875 198.605469 "/>
<path style="fill:none;stroke-width:1.2;stroke-linecap:butt;stroke-linejoin:miter;stroke:rgb(0%,0%,0%);stroke-opacity:1;stroke-miterlimit:10;" d="M 146.671875 198.605469 L 134.070312 221.796875 "/>
<path style="fill:none;stroke-width:1.2;stroke-linecap:butt;stroke-linejoin:miter;stroke:rgb(0%,0%,0%);stroke-opacity:1;stroke-miterlimit:10;" d="M 139.957031 197.960938 L 129.875 216.511719 "/>
<path style="fill:none;stroke-width:1.2;stroke-linecap:butt;stroke-linejoin:miter;stroke:rgb(0%,0%,0%);stroke-opacity:1;stroke-miterlimit:10;" d="M 134.070312 221.796875 L 107.6875 222.476562 "/>
<path style="fill:none;stroke-width:1.2;stroke-linecap:butt;stroke-linejoin:miter;stroke:rgb(0%,0%,0%);stroke-opacity:1;stroke-miterlimit:10;" d="M 107.6875 222.476562 L 93.90625 199.96875 "/>
<path style="fill:none;stroke-width:1.2;stroke-linecap:butt;stroke-linejoin:miter;stroke:rgb(0%,0%,0%);stroke-opacity:1;stroke-miterlimit:10;" d="M 111.605469 216.984375 L 100.582031 198.976562 "/>
<path style="fill:none;stroke-width:1.2;stroke-linecap:butt;stroke-linejoin:miter;stroke:rgb(0%,0%,0%);stroke-opacity:1;stroke-miterlimit:10;" d="M 124.007812 146.550781 L 125.292969 154.238281 "/>
<path style="fill:none;stroke-width:1.2;stroke-linecap:butt;stroke-linejoin:miter;stroke:rgb(100%,0%,0%);stroke-opacity:1;stroke-miterlimit:10;" d="M 125.292969 154.238281 L 126.574219 161.921875 "/>
<path style="fill:none;stroke-width:1.2;stroke-linecap:butt;stroke-linejoin:miter;stroke:rgb(0%,0%,0%);stroke-opacity:1;stroke-miterlimit:10;" d="M 130.132812 145.527344 L 131.417969 153.214844 "/>
<path style="fill:none;stroke-width:1.2;stroke-linecap:butt;stroke-linejoin:miter;stroke:rgb(100%,0%,0%);stroke-opacity:1;stroke-miterlimit:10;" d="M 131.417969 153.214844 L 132.699219 160.898438 "/>
<path style="fill:none;stroke-width:1.2;stroke-linecap:butt;stroke-linejoin:miter;stroke:rgb(0%,0%,0%);stroke-opacity:1;stroke-miterlimit:10;" d="M 127.070312 146.039062 L 138.980469 140.363281 "/>
<path style="fill:none;stroke-width:1.2;stroke-linecap:butt;stroke-linejoin:miter;stroke:rgb(0%,0%,100%);stroke-opacity:1;stroke-miterlimit:10;" d="M 138.980469 140.363281 L 150.894531 134.6875 "/>
<path style=" stroke:none;fill-rule:nonzero;fill:rgb(100%,100%,100%);fill-opacity:1;" d="M 125.636719 154.910156 L 134.636719 154.910156 L 134.636719 167.910156 L 125.636719 167.910156 Z M 125.636719 154.910156 "/>
<g style="fill:rgb(100%,0%,0%);fill-opacity:1;">
  <use xlink:href="#glyph0-2" x="125.636719" y="164.811523"/>
</g>
<path style="fill:none;stroke-width:1.2;stroke-linecap:butt;stroke-linejoin:miter;stroke:rgb(0%,0%,100%);stroke-opacity:1;stroke-miterlimit:10;" d="M 150.894531 134.6875 L 161.765625 142.164062 "/>
<path style="fill:none;stroke-width:1.2;stroke-linecap:butt;stroke-linejoin:miter;stroke:rgb(0%,0%,0%);stroke-opacity:1;stroke-miterlimit:10;" d="M 161.765625 142.164062 L 172.640625 149.640625 "/>
<path style=" stroke:none;fill-rule:nonzero;fill:rgb(100%,100%,100%);fill-opacity:1;" d="M 142.894531 128.1875 L 159.894531 128.1875 L 159.894531 141.1875 L 142.894531 141.1875 Z M 142.894531 128.1875 "/>
<g style="fill:rgb(0%,0%,100%);fill-opacity:1;">
  <use xlink:href="#glyph0-1" x="142.894531" y="138.088867"/>
  <use xlink:href="#glyph0-3" x="150.87793" y="138.088867"/>
</g>
<path style="fill:none;stroke-width:1.2;stroke-linecap:butt;stroke-linejoin:miter;stroke:rgb(0%,0%,0%);stroke-opacity:1;stroke-miterlimit:10;" d="M 172.640625 149.640625 L 196.464844 138.289062 "/>
<path style="fill:none;stroke-width:1.2;stroke-linecap:butt;stroke-linejoin:miter;stroke:rgb(0%,0%,0%);stroke-opacity:1;stroke-miterlimit:10;" d="M 196.464844 138.289062 L 201.28125 112.339844 "/>
<path style="fill:none;stroke-width:1.2;stroke-linecap:butt;stroke-linejoin:miter;stroke:rgb(0%,0%,0%);stroke-opacity:1;stroke-miterlimit:10;" d="M 203.050781 136.828125 L 206.90625 116.066406 "/>
<path style="fill:none;stroke-width:1.2;stroke-linecap:butt;stroke-linejoin:miter;stroke:rgb(100%,0%,0%);stroke-opacity:1;stroke-miterlimit:10;" d="M 219.652344 150.886719 L 208.058594 144.585938 "/>
<path style="fill:none;stroke-width:1.2;stroke-linecap:butt;stroke-linejoin:miter;stroke:rgb(0%,0%,0%);stroke-opacity:1;stroke-miterlimit:10;" d="M 208.058594 144.585938 L 196.464844 138.289062 "/>
<path style="fill:none;stroke-width:1.2;stroke-linecap:butt;stroke-linejoin:miter;stroke:rgb(0%,0%,0%);stroke-opacity:1;stroke-miterlimit:10;" d="M 201.28125 112.339844 L 227.449219 108.902344 "/>
<path style="fill:none;stroke-width:1.2;stroke-linecap:butt;stroke-linejoin:miter;stroke:rgb(0%,0%,0%);stroke-opacity:1;stroke-miterlimit:10;" d="M 227.449219 108.902344 L 238.800781 132.726562 "/>
<path style="fill:none;stroke-width:1.2;stroke-linecap:butt;stroke-linejoin:miter;stroke:rgb(0%,0%,0%);stroke-opacity:1;stroke-miterlimit:10;" d="M 222.976562 113.957031 L 232.0625 133.015625 "/>
<path style="fill:none;stroke-width:1.2;stroke-linecap:butt;stroke-linejoin:miter;stroke:rgb(0%,0%,0%);stroke-opacity:1;stroke-miterlimit:10;" d="M 238.800781 132.726562 L 229.226562 141.808594 "/>
<path style="fill:none;stroke-width:1.2;stroke-linecap:butt;stroke-linejoin:miter;stroke:rgb(100%,0%,0%);stroke-opacity:1;stroke-miterlimit:10;" d="M 229.226562 141.808594 L 219.652344 150.886719 "/>
<path style="fill:none;stroke-width:1.2;stroke-linecap:butt;stroke-linejoin:miter;stroke:rgb(0%,0%,0%);stroke-opacity:1;stroke-miterlimit:10;" d="M 238.800781 132.726562 L 264.75 137.546875 "/>
<path style=" stroke:none;fill-rule:nonzero;fill:rgb(100%,100%,100%);fill-opacity:1;" d="M 215.652344 144.386719 L 224.652344 144.386719 L 224.652344 157.386719 L 215.652344 157.386719 Z M 215.652344 144.386719 "/>
<g style="fill:rgb(100%,0%,0%);fill-opacity:1;">
  <use xlink:href="#glyph0-2" x="215.652344" y="154.288086"/>
</g>
</g>
</svg>

<svg xmlns="http://www.w3.org/2000/svg" xmlns:xlink="http://www.w3.org/1999/xlink" width="300pt" height="300pt" viewBox="0 0 300 300"><defs><symbol overflow="visible"><path d="M.547 1.938V-7.75h5.5v9.688zm.625-.61h4.266v-8.47H1.171zm0 0"/></symbol><symbol overflow="visible" id="a"><path d="M1.078-8.016h1.47l3.546 6.704v-6.704h1.062V0H5.688L2.124-6.703V0H1.078zm0 0"/></symbol><symbol overflow="visible" id="b"><path d="M4.328-7.28c-.78 0-1.406.296-1.875.89-.46.585-.687 1.382-.687 2.39 0 1.012.226 1.813.687 2.406.47.586 1.094.875 1.875.875.79 0 1.414-.288 1.875-.874.457-.593.688-1.394.688-2.406 0-1.008-.23-1.805-.687-2.39-.46-.594-1.086-.89-1.875-.89zm0-.892c1.125 0 2.024.383 2.703 1.14C7.708-6.28 8.048-5.27 8.048-4c0 1.262-.34 2.273-1.016 3.03C6.353-.22 5.454.157 4.33.157S2.3-.22 1.625-.97c-.668-.75-1-1.757-1-3.03 0-1.27.332-2.28 1-3.03.676-.76 1.578-1.142 2.703-1.142zm0 0"/></symbol><symbol overflow="visible" id="c"><path d="M1.078-8.016h1.094v3.282H6.11v-3.282h1.077V0H6.11v-3.813H2.17V0H1.078zm0 0"/></symbol></defs><g><path fill="#fff" d="M0 0h300v300H0z"/><path d="M83.023 94.668m-1.906-2.316l-.676.793m-1.23-3.106l-1.355 1.58m-.55-3.897l-2.035 2.375m.125-4.692l-2.707 3.172m.8-5.488l-3.386 3.965m1.48-6.282l-4.066 4.758m2.16-7.073l-4.742 5.55m2.836-7.862l-5.422 6.34m3.64-8.505l-6.05 7.082" stroke="#000" stroke-miterlimit="10" fill="none"/><path d="M83.023 94.668l25.665-6.152" stroke-width="1.2" stroke="#000" stroke-miterlimit="10" fill="none"/><path d="M80.945 120.977l1.04-13.153" stroke-width="1.2" stroke="#00f" stroke-miterlimit="10" fill="none"/><path d="M81.984 107.824l1.04-13.156M108.688 88.516l13.785 22.507M104.773 94.008l11.024 18.008M122.473 111.023l-17.15 20.063M105.324 131.086l-12.187-5.055" stroke-width="1.2" stroke="#000" stroke-miterlimit="10" fill="none"/><path d="M93.137 126.03l-12.192-5.053" stroke-width="1.2" stroke="#00f" stroke-miterlimit="10" fill="none"/><path d="M105.324 131.086l-16.69 20.965 8.182 4.45zm0 0"/><path d="M105.324 131.086l21.746 14.953" stroke-width="1.2" stroke="#000" stroke-miterlimit="10" fill="none"/><path d="M80.945 120.977L69.69 127.87" stroke-width="1.2" stroke="#00f" stroke-miterlimit="10" fill="none"/><path d="M69.69 127.87l-11.252 6.892" stroke-width="1.2" stroke="#000" stroke-miterlimit="10" fill="none"/><path d="M76.945 114.477h8v13h-8zm0 0" fill="#fff"/><use xlink:href="#a" x="76.945" y="124.378" fill="#00f"/><path d="M55.336 134.84l.34 13.19" stroke-width="1.2" stroke="#000" stroke-miterlimit="10" fill="none"/><path d="M55.676 148.03l.344 13.193" stroke-width="1.2" stroke="#f00" stroke-miterlimit="10" fill="none"/><path d="M61.543 134.68l.34 13.19" stroke-width="1.2" stroke="#000" stroke-miterlimit="10" fill="none"/><path d="M61.883 147.87l.344 13.192" stroke-width="1.2" stroke="#f00" stroke-miterlimit="10" fill="none"/><path d="M58.438 134.762L35.25 122.16" stroke-width="1.2" stroke="#000" stroke-miterlimit="10" fill="none"/><path d="M55.12 154.645h9v13h-9zm0 0" fill="#fff"/><use xlink:href="#b" x="55.121" y="164.546" fill="#f00"/><path d="M92.727 154.273l13.78 22.508M106.508 176.78l26.383-.682M109.305 182.922l21.105-.547M93.906 199.97l12.602-23.19M132.89 176.098l13.782 22.507M146.672 198.605l-12.602 23.192M139.957 197.96l-10.082 18.552M134.07 221.797l-26.382.68M107.688 222.477L93.906 199.97M111.605 216.984l-11.023-18.007M124.008 146.55l1.285 7.688" stroke-width="1.2" stroke="#000" stroke-miterlimit="10" fill="none"/><path d="M125.293 154.238l1.28 7.684" stroke-width="1.2" stroke="#f00" stroke-miterlimit="10" fill="none"/><path d="M130.133 145.527l1.285 7.688" stroke-width="1.2" stroke="#000" stroke-miterlimit="10" fill="none"/><path d="M131.418 153.215l1.28 7.683" stroke-width="1.2" stroke="#f00" stroke-miterlimit="10" fill="none"/><path d="M127.07 146.04l11.91-5.677" stroke-width="1.2" stroke="#000" stroke-miterlimit="10" fill="none"/><path d="M138.98 140.363l11.915-5.675" stroke-width="1.2" stroke="#00f" stroke-miterlimit="10" fill="none"/><path d="M125.637 154.91h9v13h-9zm0 0" fill="#fff"/><use xlink:href="#b" x="125.637" y="164.812" fill="#f00"/><path d="M150.895 134.688l10.87 7.476" stroke-width="1.2" stroke="#00f" stroke-miterlimit="10" fill="none"/><path d="M161.766 142.164l10.875 7.477" stroke-width="1.2" stroke="#000" stroke-miterlimit="10" fill="none"/><path d="M142.895 128.188h17v13h-17zm0 0" fill="#fff"/><g fill="#00f"><use xlink:href="#a" x="142.895" y="138.089"/><use xlink:href="#c" x="150.878" y="138.089"/></g><path d="M172.64 149.64l23.825-11.35M196.465 138.29l4.816-25.95M203.05 136.828l3.856-20.762" stroke-width="1.2" stroke="#000" stroke-miterlimit="10" fill="none"/><path d="M219.652 150.887l-11.593-6.3" stroke-width="1.2" stroke="#f00" stroke-miterlimit="10" fill="none"/><path d="M208.06 144.586l-11.595-6.297M201.28 112.34l26.17-3.438M227.45 108.902l11.35 23.825M222.977 113.957l9.085 19.06M238.8 132.727l-9.573 9.082" stroke-width="1.2" stroke="#000" stroke-miterlimit="10" fill="none"/><path d="M229.227 141.81l-9.575 9.077" stroke-width="1.2" stroke="#f00" stroke-miterlimit="10" fill="none"/><path d="M238.8 132.727l25.95 4.82" stroke-width="1.2" stroke="#000" stroke-miterlimit="10" fill="none"/><path d="M215.652 144.387h9v13h-9zm0 0" fill="#fff"/><use xlink:href="#b" x="215.652" y="154.288" fill="#f00"/></g></svg>
